!!!SOCIAL_FUNCTION:	war songs
!!!PDT:	1922
!!!OTL: No_81_War_Song_(h).krn
!!!REG: Southwest
!!!LANG: Non-Tone
!!!LING_GROUP: Uto-Aztecan
**kern	**kern
*staff2	*staff1
*clefF4	*clefF4
*k[b-e-a-d-g-]	*k[b-e-a-d-g-]
*M3/4	*M3/4
16r	16e-\
=1	=1
8GG-/L	4..e-\
8GG-/J	.
8GG-/L	.
8GG-/J	.
.	16B-\
8GG-/L	16e-\LK
.	8.B-\J
8GG-/J	.
=2	=2
2.r	8.e-\L
.	16B-\Jk
.	8.A-\L
.	16F\Jk
.	4F\
=3||	=3||
*M2/4	*M2/4
2r	16F\LK
.	8F\
.	16F\Jk
.	8.F\L
.	16B-\Jk
=4||	=4||
*M3/4	*M3/4
2.r	4B-\
.	8.B-\L
.	16A-\Jk
.	4A-\
=5	=5
2.r	8.B-\L
.	16A-\Jk
.	8.A-\L
.	16F\Jk
.	4F\
=6||	=6||
*M2/4	*M2/4
2r	16F\LK
.	8F\
.	16F\Jk
.	8.F\L
.	16E-\Jk
=7	=7
2r	4F\
.	12E-\L
.	12D-\
.	12BB-;\J
=8	=8
2r	4F\
.	8F\L
.	16A-\L
.	16F\JJ
=9	=9
2r	16A-\LK
.	8.F\J
.	8.E-\L
.	16D-\Jk
=10	=10
2r	4F\
.	8E-\L
.	16F\L
.	16E-\JJ
=11	=11
2r	16F\LK
.	8.E-\J
.	4D-\
=12	=12
2r	16BB-/LK
.	8.BB-/J
.	8BB-/L
.	8BB-/J
=13	=13
2r	2BB-/
==	==
*-	*-
